public/svg/UKFlag.svg

<svg xmlns="http://www.w3.org/2000/svg" width="512" height="512" fill="none" xmlns:v="https://vecta.io/nano"><path d="M256 512c141.385 0 256-114.615 256-256S397.385 0 256 0 0 114.615 0 256s114.615 256 256 256z" fill="#f0f0f0"/><path d="M52.92 100.142c-20.109 26.163-35.272 56.318-44.101 89.077h133.178L52.92 100.142zm450.261 89.077c-8.829-32.758-23.993-62.913-44.101-89.076l-89.075 89.076h133.176zM8.819 322.784c8.83 32.758 23.993 62.913 44.101 89.075l89.074-89.075H8.819zM411.858 52.921c-26.163-20.109-56.317-35.272-89.076-44.102v133.177l89.076-89.075zM100.142 459.079c26.163 20.109 56.318 35.272 89.076 44.102V370.005l-89.076 89.074zm89.075-450.26c-32.758 8.83-62.913 23.993-89.075 44.101l89.075 89.075V8.819zm133.566 494.362c32.758-8.83 62.913-23.993 89.075-44.101l-89.075-89.075v133.176zm47.222-180.397l89.075 89.076c20.108-26.162 35.272-56.318 44.101-89.076H370.005z" fill="#0052b4"/><path d="M509.833 222.609h-220.44-.001V2.167C278.461.744 267.317 0 256 0a258.53 258.53 0 0 0-33.391 2.167v220.44.001H2.167C.744 233.539 0 244.683 0 256a258.53 258.53 0 0 0 2.167 33.391h220.44.001v220.442C233.539 511.256 244.681 512 256 512a258.35 258.35 0 0 0 33.391-2.167v-220.44-.001h220.442C511.256 278.461 512 267.319 512 256a258.53 258.53 0 0 0-2.167-33.391zm-187.05 100.175L437.019 437.02c5.254-5.252 10.266-10.743 15.048-16.435l-97.802-97.802h-31.482v.001zm-133.566 0h-.002L74.98 437.019c5.252 5.254 10.743 10.266 16.435 15.048l97.802-97.804v-31.479zm0-133.565v-.002L74.981 74.98c-5.254 5.252-10.266 10.743-15.048 16.435l97.803 97.803h31.481v.001zm133.566 0L437.02 74.981c-5.252-5.254-10.743-10.266-16.435-15.047l-97.802 97.803v31.482z" fill="#d80027"/></svg>

<svg xmlns="http://www.w3.org/2000/svg" width="512" height="512" viewBox="0 0 512 512" fill="none">
<path d="M256 512C397.385 512 512 397.385 512 256C512 114.615 397.385 0 256 0C114.615 0 0 114.615 0 256C0 397.385 114.615 512 256 512Z" fill="#F0F0F0"/>
<path d="M52.92 100.142C32.811 126.305 17.648 156.46 8.81897 189.219H141.997L52.92 100.142Z" fill="#0052B4"/>
<path d="M503.181 189.219C494.352 156.461 479.188 126.306 459.08 100.143L370.005 189.219H503.181Z" fill="#0052B4"/>
<path d="M8.81897 322.784C17.649 355.542 32.812 385.697 52.92 411.859L141.994 322.784H8.81897Z" fill="#0052B4"/>
<path d="M411.858 52.9211C385.695 32.8121 355.541 17.6491 322.782 8.81909V141.996L411.858 52.9211Z" fill="#0052B4"/>
<path d="M100.142 459.079C126.305 479.188 156.46 494.351 189.218 503.181V370.005L100.142 459.079Z" fill="#0052B4"/>
<path d="M189.217 8.81909C156.459 17.6491 126.304 32.8121 100.142 52.9201L189.217 141.995V8.81909Z" fill="#0052B4"/>
<path d="M322.783 503.181C355.541 494.351 385.696 479.188 411.858 459.08L322.783 370.005V503.181Z" fill="#0052B4"/>
<path d="M370.005 322.784L459.08 411.86C479.188 385.698 494.352 355.542 503.181 322.784H370.005Z" fill="#0052B4"/>
<path d="M509.833 222.609H289.393H289.392V2.167C278.461 0.744 267.317 0 256 0C244.681 0 233.539 0.744 222.609 2.167V222.607V222.608H2.167C0.744 233.539 0 244.683 0 256C0 267.319 0.744 278.461 2.167 289.391H222.607H222.608V509.833C233.539 511.256 244.681 512 256 512C267.317 512 278.461 511.257 289.391 509.833V289.393V289.392H509.833C511.256 278.461 512 267.319 512 256C512 244.683 511.256 233.539 509.833 222.609Z" fill="#D80027"/>
<path d="M322.783 322.784L437.019 437.02C442.273 431.768 447.285 426.277 452.067 420.585L354.265 322.783H322.783V322.784Z" fill="#D80027"/>
<path d="M189.217 322.784H189.215L74.98 437.019C80.232 442.273 85.723 447.285 91.415 452.067L189.217 354.263V322.784Z" fill="#D80027"/>
<path d="M189.217 189.219V189.217L74.981 74.98C69.727 80.232 64.715 85.723 59.933 91.415L157.736 189.218H189.217V189.219Z" fill="#D80027"/>
<path d="M322.783 189.219L437.02 74.9811C431.768 69.7271 426.277 64.7151 420.585 59.9341L322.783 157.737V189.219Z" fill="#D80027"/>
</svg>
